X:340
T:the Wheels of the World (reel)
R:Reel
O:Ireland
B:Ceol Rince 1, n168
S:Ceol Rince 1
Z:Transcription, chords:Mike Long
M:C|
L:1/8
K:G
"D"dD~D2 FAGF|"C"EC~C2 EFGA|"D"dD~D2 FAGF|"C"EDCE "D"D2FA|\
"D"dD~D2 FAGF|"C"EC~C2 EFGc|
"Am/G"AddB cBAG|"C"ECGE "D"D3|]\
B|\
"D"dAdf afdf|"C"ecgc acge|"D"dAdf afdf|
"C"edce "D"d3A|\
"D"dAdf afdf|"C"ecgc acge|"Am"abag efge|"D"fa"C"ge "D"d3z|]
